packages/icons/src/gitops-agent-blue.svg

<svg fill="none" viewBox="0 0 64 64" xmlns="http://www.w3.org/2000/svg"><path clip-rule="evenodd" d="m35.1293 7.93417c-1.2964-1.81823-3.9529-1.69984-5.1206.15904-.0668.10624-.1357.21645-.2067.33044l-10.5048 9.28895c-1.3697 1.2112-1.4478 3.3219-.1714 4.6311l3.2284 3.3113c-.0036.0454-.0069.0906-.01.1356h-.0233v.6704 7.1833c0 1.3882.8841 2.57 2.1199 3.0131l-2.0165 2.0167c-1.4094 1.2328-3.1056 1.229-4.2299 1.2265l-.1449-.0002c-1.8306 0-3.4955-1.7597-3.3381-4.2152.0565-.8818-.6125-1.6425-1.4944-1.6991-.8818-.0565-1.6425.6126-1.699 1.4944-.2486 3.8777 2.4556 7.6199 6.5315 7.6199.0576 0 .1227.0006.1949.0013 1.1304.0109 3.978.0382 6.3406-2.0666.0229-.0205.0453-.0416.0671-.0633l2.441-2.4412 1.6863-1.6863h2.2329v4.6908c0 .8836.7163 1.6 1.6 1.6s1.6-.7164 1.6-1.6v-4.6908h2.2082l3.7888 3.7888c.0217.0217.0441.0428.067.0633 2.3627 2.1049 5.2103 2.0775 6.3407 2.0667.0721-.0007.1372-.0014.1948-.0014 4.0759 0 6.7801-3.7422 6.5316-7.6198-.0565-.8819-.8172-1.5509-1.6991-1.4944-.8818.0565-1.5509.8172-1.4944 1.699.1574 2.4555-1.5075 4.2152-3.3381 4.2152l-.1449.0003c-1.1243.0025-2.8204.0063-4.2298-1.2266l-1.714-1.714c1.1856-.4686 2.0244-1.6249 2.0244-2.9771v-7.1833-.4602l3.5068-3.5969c1.2764-1.3092 1.1983-3.4199-.1715-4.6311l-10.6659-9.43153c-.0993-.14181-.1953-.27761-.2876-.4071zm8.8338 12.23583-1.8036 1.8499c-.4265-1.7176-1.0501-3.4092-1.7535-4.9953zm-10.9541-9.6863-.353-.3121-.3813.3372c-1.1508 1.8685-2.7262 4.5699-4.0722 7.3847-1.5648 3.2724-2.6816 6.4235-2.6816 8.5675v7.1833h11.5471.0303 2.4492v-7.1833c0-2.9086-1.1087-6.2065-2.5993-9.2872-1.2847-2.655-2.7958-5.0335-3.9392-6.6901zm-9.8636 11.3989c.5318-1.7052 1.2679-3.4612 2.0476-5.1118l-3.776 3.339zm14.0669 7.6131c0 .8284-.6716 1.5-1.5 1.5s-1.5-.6716-1.5-1.5.6716-1.5 1.5-1.5 1.5.6716 1.5 1.5zm-7.7 1.5c.8284 0 1.5-.6716 1.5-1.5s-.6716-1.5-1.5-1.5-1.5.6716-1.5 1.5.6716 1.5 1.5 1.5zm1.3109 20.1578c0-.8836.7164-1.6 1.6-1.6.8837 0 1.6.7164 1.6 1.6 0 .8837-.7163 1.6-1.6 1.6-.8836 0-1.6-.7163-1.6-1.6zm1.6-4.8c-2.6509 0-4.8 2.149-4.8 4.8s2.1491 4.8 4.8 4.8c2.651 0 4.8-2.149 4.8-4.8s-2.149-4.8-4.8-4.8zm19.961 3.2c-.8837 0-1.6.7164-1.6 1.6 0 .8837.7163 1.6 1.6 1.6.8836 0 1.6-.7163 1.6-1.6 0-.8836-.7164-1.6-1.6-1.6zm-4.8 1.6c0-2.651 2.149-4.8 4.8-4.8 2.6509 0 4.8 2.149 4.8 4.8s-2.1491 4.8-4.8 4.8c-2.651 0-4.8-2.149-4.8-4.8zm-37.5688 0c0-.8836.7164-1.6 1.6-1.6.8837 0 1.6.7164 1.6 1.6 0 .8837-.7163 1.6-1.6 1.6-.8836 0-1.6-.7163-1.6-1.6zm1.6-4.8c-2.65094 0-4.79997 2.149-4.79997 4.8s2.14903 4.8 4.79997 4.8c2.651 0 4.8-2.149 4.8-4.8s-2.149-4.8-4.8-4.8z" fill="#0278d5" fill-rule="evenodd"/></svg>

<svg viewBox="0 0 64 64" fill="none" xmlns="http://www.w3.org/2000/svg">
<path fill-rule="evenodd" clip-rule="evenodd" d="M35.1293 7.93417C33.8329 6.11594 31.1764 6.23433 30.0087 8.09321C29.9419 8.19945 29.873 8.30966 29.802 8.42365L19.2972 17.7126C17.9275 18.9238 17.8494 21.0345 19.1258 22.3437L22.3542 25.655C22.3506 25.7004 22.3473 25.7456 22.3442 25.7906H22.3209V26.461V33.6443C22.3209 35.0325 23.205 36.2143 24.4408 36.6574L22.4243 38.6741C21.0149 39.9069 19.3187 39.9031 18.1944 39.9006L18.0495 39.9004C16.2189 39.9004 14.554 38.1407 14.7114 35.6852C14.7679 34.8034 14.0989 34.0427 13.217 33.9861C12.3352 33.9296 11.5745 34.5987 11.518 35.4805C11.2694 39.3582 13.9736 43.1004 18.0495 43.1004C18.1071 43.1004 18.1722 43.101 18.2444 43.1017C19.3748 43.1126 22.2224 43.1399 24.585 41.0351C24.6079 41.0146 24.6303 40.9935 24.6521 40.9718L27.0931 38.5306L27.0931 38.5306L28.7794 36.8443H31.0123V41.5351C31.0123 42.4187 31.7286 43.1351 32.6123 43.1351C33.496 43.1351 34.2123 42.4187 34.2123 41.5351V36.8443H36.4205L40.2093 40.6331C40.231 40.6548 40.2534 40.6759 40.2763 40.6964C42.639 42.8013 45.4866 42.7739 46.617 42.7631C46.6891 42.7624 46.7542 42.7617 46.8118 42.7617C50.8877 42.7617 53.5919 39.0195 53.3434 35.1419C53.2869 34.26 52.5262 33.591 51.6443 33.6475C50.7625 33.704 50.0934 34.4647 50.1499 35.3465C50.3073 37.802 48.6424 39.5617 46.8118 39.5617L46.6669 39.562C45.5426 39.5645 43.8465 39.5683 42.4371 38.3354L40.7231 36.6214C41.9087 36.1528 42.7475 34.9965 42.7475 33.6443V26.461V26.0008L46.2543 22.4039C47.5307 21.0947 47.4526 18.984 46.0828 17.7728L35.4169 8.34127C35.3176 8.19946 35.2216 8.06366 35.1293 7.93417ZM43.9631 20.17L42.1595 22.0199C41.733 20.3023 41.1094 18.6107 40.406 17.0246L43.9631 20.17ZM33.009 10.4837L32.656 10.1716L32.2747 10.5088C31.1239 12.3773 29.5485 15.0787 28.2025 17.8935C26.6377 21.1659 25.5209 24.317 25.5209 26.461V33.6443H37.068H37.0983H39.5475V26.461C39.5475 23.5524 38.4388 20.2545 36.9482 17.1738C35.6635 14.5188 34.1524 12.1403 33.009 10.4837ZM23.1454 21.8826C23.6772 20.1774 24.4133 18.4214 25.193 16.7708L21.417 20.1098L23.1454 21.8826ZM37.2123 29.4957C37.2123 30.3241 36.5407 30.9957 35.7123 30.9957C34.8839 30.9957 34.2123 30.3241 34.2123 29.4957C34.2123 28.6673 34.8839 27.9957 35.7123 27.9957C36.5407 27.9957 37.2123 28.6673 37.2123 29.4957ZM29.5123 30.9957C30.3407 30.9957 31.0123 30.3241 31.0123 29.4957C31.0123 28.6673 30.3407 27.9957 29.5123 27.9957C28.6839 27.9957 28.0123 28.6673 28.0123 29.4957C28.0123 30.3241 28.6839 30.9957 29.5123 30.9957ZM30.8232 51.1535C30.8232 50.2699 31.5396 49.5535 32.4232 49.5535C33.3069 49.5535 34.0232 50.2699 34.0232 51.1535C34.0232 52.0372 33.3069 52.7535 32.4232 52.7535C31.5396 52.7535 30.8232 52.0372 30.8232 51.1535ZM32.4232 46.3535C29.7723 46.3535 27.6232 48.5025 27.6232 51.1535C27.6232 53.8045 29.7723 55.9535 32.4232 55.9535C35.0742 55.9535 37.2232 53.8045 37.2232 51.1535C37.2232 48.5025 35.0742 46.3535 32.4232 46.3535ZM52.3842 49.5535C51.5005 49.5535 50.7842 50.2699 50.7842 51.1535C50.7842 52.0372 51.5005 52.7535 52.3842 52.7535C53.2678 52.7535 53.9842 52.0372 53.9842 51.1535C53.9842 50.2699 53.2678 49.5535 52.3842 49.5535ZM47.5842 51.1535C47.5842 48.5025 49.7332 46.3535 52.3842 46.3535C55.0351 46.3535 57.1842 48.5025 57.1842 51.1535C57.1842 53.8045 55.0351 55.9535 52.3842 55.9535C49.7332 55.9535 47.5842 53.8045 47.5842 51.1535ZM10.0154 51.1535C10.0154 50.2699 10.7318 49.5535 11.6154 49.5535C12.4991 49.5535 13.2154 50.2699 13.2154 51.1535C13.2154 52.0372 12.4991 52.7535 11.6154 52.7535C10.7318 52.7535 10.0154 52.0372 10.0154 51.1535ZM11.6154 46.3535C8.96446 46.3535 6.81543 48.5025 6.81543 51.1535C6.81543 53.8045 8.96446 55.9535 11.6154 55.9535C14.2664 55.9535 16.4154 53.8045 16.4154 51.1535C16.4154 48.5025 14.2664 46.3535 11.6154 46.3535Z" fill="#0278D5"/>
</svg>
